teeny/outline/loader.svg

<svg width="15" height="15" viewBox="0 0 15 15" fill="none" xmlns="http://www.w3.org/2000/svg">
<path d="M8 1V0.5H7V1H8ZM7 4.5V5H8V4.5H7ZM8 10.5V10H7V10.5H8ZM7 14V14.5H8V14H7ZM4.5 7.99548H5V6.99548H4.5V7.99548ZM1 6.99548H0.5V7.99548H1V6.99548ZM13.9994 8L14.4994 8.00064L14.5006 7.00065L14.0006 7L13.9994 8ZM10.5006 6.99548L10.0006 6.99484L9.99936 7.99484L10.4994 7.99548L10.5006 6.99548ZM7 1V4.5H8V1H7ZM7 10.5V14H8V10.5H7ZM4.5 6.99548H1V7.99548H4.5V6.99548ZM14.0006 7L10.5006 6.99548L10.4994 7.99548L13.9994 8L14.0006 7ZM2.14645 2.85355L5.14645 5.85355L5.85355 5.14645L2.85355 2.14645L2.14645 2.85355ZM12.1464 2.14645L9.14645 5.14645L9.85355 5.85355L12.8536 2.85355L12.1464 2.14645ZM2.85355 12.8536L5.85355 9.85355L5.14645 9.14645L2.14645 12.1464L2.85355 12.8536ZM9.14645 9.85355L12.1464 12.8536L12.8536 12.1464L9.85355 9.14645L9.14645 9.85355Z" fill="black"/>
</svg>

<svg viewBox="0 0 15 15" xmlns="http://www.w3.org/2000/svg"><path d="M8 1V.5H7V1h1ZM7 4.5V5h1v-.5H7Zm1 6V10H7v.5h1ZM7 14v.5h1V14H7ZM4.5 7.99H5v-1h-.5v1Zm-3.5-1H.5v1H1v-1Zm12.99 1l.5 0 0-1 -.5-.01 -.01 1Zm-3.5-1.01l-.5-.01 -.01 1 .5 0 0-1Zm-3.51-6v3.5h1V.98h-1Zm0 9.5v3.5h1v-3.5h-1Zm-2.5-3.51H.98v1h3.5v-1Zm9.5 0l-3.5-.01 -.01 1 3.5 0 0-1ZM2.12 2.82l3 3 .7-.71 -3-3 -.71.7Zm9.99-.71l-3 3 .7.7 3-3 -.71-.71Zm-9.3 10.7l3-3.01 -.71-.71 -3 2.99 .7.7ZM9.1 9.8l2.99 3 .7-.71 -3.01-3 -.71.7Z"/></svg>
